X:1
T: Braes of Tulliemet
T: 1st setting
R:Strathspey
Q:128
K:Em
M:4/4
L:1/16
|:A2|EB3 B3A B3A Bd3|FD3 A3D B3D A3G|EB3 B3A B3A Be3|d3B A3F E6E2|
EB3 B3A B3A Bd3|FD3 A3D B3D A3G|EB3 B3A B3A Be3|d3B A3F E6B2|
e3B eg3 e3B eg3|d3A df3 d3A df3|e3B eg3 e3B eg3|d3B A3F E6B2|
e3B eg3 B2ef g3e|d3A df3 A2de f3^d|eB3 B3^c d3e f3e|d3B BAGF E6:|
